X:1
T:[ID 1-83b]
T:[ID 1-83b]
T:Bezeichnung standardisiert: Boure Boure 4. In dieser Quelle auch als: Courant In dieser Quelle auch als: Tantz
T:Urheber unbekannt Datum in der hier transkribierten schriftlichen Quelle: 1775
C:Urheber unbekannt
C:Datum in der hier transkribierten schriftlichen Quelle: 1775
L:1/8
M:2/4
K:A
V:1 treble 
V:1
 cAcA | AG/A/ F/A/c/e/ | cAcA | AG/A/ C2 :: ccce | d/e/f/d/ F2 | dddf | e/f/g/e/ c2 | GGGA | %9
 B2 c2 | ED/C/ DC/B,/ | C4 :| %12

